X:112
T:Flower of the Flock
Z: id:dc-reel-104
M:C
L:1/8
K:G Major
GE|DEGA BGGB|cABG AGEG|DEGA BABc|dBAB G2:|!
Bd|g3e d3B|cABG AGEG|g3e d2Bd|eaab agef|!
g3e d3B|cABG AGEG|DEGA BABc|dBAB G2:|!